icons/NodeJS-Dark.svg

<svg xmlns="http://www.w3.org/2000/svg" width="256" height="256" fill="none" viewBox="0 0 256 256"><rect width="256" height="256" fill="#242938" rx="60"/><path fill="#81CD39" d="M119.878 31.1164C124.797 28.3008 131.203 28.2883 136.117 31.1164C160.839 45.0855 185.569 59.0332 210.287 73.0108C214.937 75.6296 218.046 80.8038 217.999 86.1608V170.206C218.034 175.785 214.617 181.083 209.712 183.642C185.071 197.535 160.442 211.444 135.805 225.337C130.786 228.207 124.251 227.986 119.387 224.88C112 220.598 104.6 216.336 97.2121 212.058C95.7022 211.158 94.0004 210.442 92.9345 208.978C93.8766 207.708 95.5618 207.55 96.9309 206.995C100.014 206.014 102.847 204.44 105.679 202.913C106.396 202.423 107.27 202.611 107.957 203.049C114.274 206.671 120.536 210.399 126.874 213.986C128.226 214.767 129.595 213.73 130.751 213.086C154.931 199.419 179.141 185.805 203.318 172.134C204.214 171.703 204.709 170.752 204.636 169.771C204.653 142.046 204.64 114.317 204.645 86.5918C204.747 85.4785 204.103 84.455 203.096 83.999C178.541 70.1702 153.997 56.3205 129.446 42.4882C128.575 41.8893 127.426 41.8878 126.554 42.4837C102.002 56.3205 77.4638 70.1832 52.9124 84.011C51.9092 84.4675 51.236 85.4745 51.3554 86.5918C51.3596 114.317 51.3554 142.046 51.3554 169.775C51.2682 170.756 51.801 171.687 52.6906 172.109C59.2422 175.824 65.8024 179.513 72.3582 183.216C76.0516 185.203 80.5863 186.385 84.6555 184.862C88.2463 183.574 90.7633 179.909 90.6948 176.097C90.7288 148.534 90.6778 120.967 90.7203 93.4078C90.6309 92.1841 91.7912 91.1731 92.981 91.2885C96.1292 91.267 99.281 91.2461 102.429 91.297C103.743 91.267 104.647 92.5847 104.485 93.8174C104.472 121.555 104.519 149.293 104.464 177.03C104.472 184.423 101.435 192.467 94.5973 196.084C86.1737 200.447 75.7619 199.522 67.4399 195.338C60.2355 191.742 53.3603 187.498 46.2838 183.646C41.3661 181.101 37.966 175.782 38.0006 170.207V86.1608C37.949 80.6929 41.1825 75.4248 45.9764 72.8445C70.6133 58.9408 95.2461 45.0261 119.878 31.1164Z"/><path fill="#81CD39" d="M141.372 89.3351C152.117 88.6433 163.62 88.9255 173.289 94.2185C180.776 98.2754 184.926 106.789 185.058 115.106C184.849 116.227 183.676 116.846 182.605 116.769C179.488 116.765 176.369 116.812 173.252 116.748C171.929 116.799 171.161 115.58 170.995 114.411C170.099 110.431 167.928 106.49 164.183 104.57C158.433 101.692 151.767 101.837 145.497 101.897C140.92 102.139 135.998 102.536 132.12 105.227C129.143 107.266 128.239 111.382 129.301 114.697C130.303 117.077 133.05 117.845 135.299 118.553C148.248 121.94 161.97 121.602 174.672 126.059C179.931 127.876 185.075 131.409 186.875 136.915C189.23 144.295 188.198 153.115 182.947 159.039C178.689 163.914 172.488 166.568 166.303 168.009C158.075 169.844 149.536 169.891 141.18 169.076C133.323 168.18 125.146 166.116 119.081 160.763C113.894 156.259 111.361 149.241 111.612 142.469C111.672 141.325 112.811 140.527 113.907 140.621C117.046 140.596 120.186 140.587 123.325 140.626C124.58 140.536 125.509 141.62 125.574 142.802C126.152 146.593 127.577 150.573 130.884 152.82C137.264 156.937 145.271 156.655 152.577 156.77C158.63 156.502 165.425 156.421 170.364 152.42C172.97 150.138 173.742 146.32 173.038 143.036C172.275 140.263 169.374 138.971 166.883 138.126C154.1 134.083 140.224 135.55 127.565 130.977C122.425 129.161 117.455 125.727 115.481 120.447C112.726 112.974 113.988 103.73 119.789 98.0061C125.445 92.312 133.609 90.1192 141.372 89.3346V89.3351"/></svg>

<svg xmlns="http://www.w3.org/2000/svg" width="256" height="256" fill="none" viewBox="0 0 256 256"><rect width="256" height="256" fill="#242938" rx="60"/><path fill="#81CD39" d="M119.88 31.12a16.6 16.6 0 0 1 16.24 0l74.17 41.9a15.3 15.3 0 0 1 7.7 13.14v84.05c.04 5.57-3.37 10.87-8.28 13.43l-73.9 41.7a16.2 16.2 0 0 1-16.42-.46L97.2 212.06c-1.5-.9-3.21-1.62-4.28-3.08.95-1.27 2.63-1.43 4-1.98 3.08-.99 5.92-2.56 8.75-4.09.72-.49 1.59-.3 2.28.14 6.31 3.62 12.58 7.35 18.91 10.94 1.36.78 2.72-.26 3.88-.9 24.18-13.67 48.4-27.28 72.57-40.96a2.4 2.4 0 0 0 1.32-2.36V86.6a2.6 2.6 0 0 0-1.54-2.6q-36.83-20.74-73.65-41.5c-.87-.6-2.02-.6-2.9 0C102 56.31 77.46 70.18 52.91 84a2.6 2.6 0 0 0-1.55 2.58v83.19c-.1.98.44 1.9 1.33 2.33q9.83 5.56 19.67 11.1c3.7 2 8.23 3.17 12.3 1.65a9.3 9.3 0 0 0 6.03-8.76c.04-27.57-.01-55.13.03-82.7-.09-1.22 1.07-2.23 2.26-2.11a411 411 0 0 1 9.45 0c1.31-.02 2.22 1.3 2.05 2.53 0 27.74.04 55.47-.02 83.21.01 7.4-3.02 15.44-9.86 19.05-8.43 4.37-18.84 3.44-27.16-.74-7.2-3.6-14.08-7.84-21.16-11.7A15.4 15.4 0 0 1 38 170.2V86.16a15.3 15.3 0 0 1 7.98-13.32z"/><path fill="#81CD39" d="M141.37 89.34c10.75-.7 22.25-.41 31.92 4.88 7.49 4.06 11.64 12.57 11.77 20.89-.21 1.12-1.38 1.74-2.46 1.66-3.11 0-6.23.04-9.35-.02-1.32.05-2.09-1.17-2.25-2.34-.9-3.98-3.07-7.92-6.82-9.84-5.75-2.88-12.41-2.73-18.68-2.67-4.58.24-9.5.64-13.38 3.33-2.98 2.04-3.88 6.15-2.82 9.47 1 2.38 3.75 3.14 6 3.85 12.95 3.39 26.67 3.05 39.37 7.5 5.26 1.83 10.4 5.36 12.2 10.86 2.36 7.38 1.33 16.2-3.92 22.13-4.26 4.87-10.46 7.53-16.65 8.97-8.23 1.83-16.76 1.88-25.12 1.07-7.86-.9-16.03-2.96-22.1-8.32-5.19-4.5-7.72-11.52-7.47-18.3.06-1.14 1.2-1.93 2.3-1.84q4.71-.04 9.42 0c1.25-.08 2.18 1 2.24 2.18.58 3.8 2 7.77 5.31 10.02 6.38 4.12 14.4 3.84 21.7 3.95 6.05-.27 12.85-.35 17.78-4.35 2.61-2.28 3.38-6.1 2.68-9.38-.76-2.78-3.67-4.07-6.16-4.91-12.78-4.05-26.66-2.58-39.31-7.15-5.14-1.82-10.11-5.25-12.09-10.53-2.75-7.48-1.5-16.72 4.3-22.44 5.66-5.7 13.83-7.9 21.6-8.68"/></svg>
